src/lib/packages/icons/src/assets/line/message-heart.svg

<svg width="24" height="24" viewBox="0 0 24 24" fill="none" xmlns="http://www.w3.org/2000/svg">
<path d="M3 21.75C2.903 21.75 2.80589 21.731 2.71289 21.693C2.43289 21.577 2.25 21.303 2.25 21V6C2.25 3.582 3.582 2.25 6 2.25H18C20.418 2.25 21.75 3.582 21.75 6V15C21.75 17.418 20.418 18.75 18 18.75H6.31104L3.53101 21.53C3.38701 21.674 3.195 21.75 3 21.75ZM6 3.75C4.423 3.75 3.75 4.423 3.75 6V19.189L5.46997 17.469C5.61097 17.328 5.801 17.249 6 17.249H18C19.577 17.249 20.25 16.576 20.25 14.999V5.99902C20.25 4.42202 19.577 3.74902 18 3.74902H6V3.75ZM12 15.25C11.895 15.25 11.7889 15.228 11.6909 15.184C11.5379 15.115 7.92689 13.452 7.33789 10.438C7.09989 9.21799 7.33606 8.06294 7.98706 7.26794C8.52906 6.60694 9.30307 6.25498 10.2261 6.25098C10.2311 6.25098 10.236 6.25098 10.24 6.25098C11.01 6.25098 11.589 6.56804 11.999 6.96704C12.409 6.56804 12.9881 6.25098 13.7571 6.25098C13.7611 6.25098 13.766 6.25098 13.771 6.25098C14.695 6.25498 15.469 6.60697 16.01 7.26697C16.661 8.06097 16.8989 9.21699 16.6599 10.438C16.0709 13.452 12.4609 15.115 12.3069 15.184C12.2109 15.228 12.105 15.25 12 15.25ZM10.24 7.75C10.238 7.75 10.2371 7.75 10.2351 7.75C9.76611 7.752 9.40093 7.91002 9.14893 8.21802C8.78693 8.65902 8.66104 9.38202 8.81104 10.15C9.16604 11.968 11.211 13.233 11.999 13.66C12.787 13.234 14.832 11.969 15.187 10.15C15.337 9.38102 15.2111 8.65802 14.8501 8.21802C14.5971 7.91002 14.232 7.75298 13.762 7.75098C13.761 7.75098 13.7591 7.75098 13.7571 7.75098C13.0211 7.75098 12.736 8.48094 12.707 8.56494C12.6 8.86294 12.315 9.06494 11.999 9.06494C11.997 9.06494 11.994 9.06494 11.991 9.06494C11.672 9.06194 11.3881 8.86001 11.2871 8.55701C11.2621 8.48001 10.978 7.75 10.24 7.75ZM15.925 10.293H15.9351H15.925Z" fill="currentColor"/>
</svg>

<svg xmlns="http://www.w3.org/2000/svg" width="24" height="24" fill="none"><path fill="currentColor" d="M3 21.75a.75.75 0 0 1-.75-.75V6c0-2.418 1.332-3.75 3.75-3.75h12c2.418 0 3.75 1.332 3.75 3.75v9c0 2.418-1.332 3.75-3.75 3.75H6.311l-2.78 2.78a.75.75 0 0 1-.531.22Zm3-18c-1.577 0-2.25.673-2.25 2.25v13.189l1.72-1.72a.749.749 0 0 1 .53-.22h12c1.577 0 2.25-.673 2.25-2.25v-9c0-1.577-.673-2.25-2.25-2.25H6v.001Zm6 11.5a.757.757 0 0 1-.31-.066c-.152-.069-3.763-1.732-4.352-4.746-.238-1.22-.002-2.375.65-3.17.541-.661 1.315-1.013 2.238-1.017h.014c.77 0 1.349.317 1.759.716.41-.399.99-.716 1.758-.716h.014c.924.004 1.698.356 2.239 1.016.651.794.889 1.95.65 3.171-.59 3.014-4.2 4.677-4.353 4.746a.74.74 0 0 1-.307.066Zm-1.76-7.5h-.005c-.469.002-.834.16-1.086.468-.362.441-.488 1.164-.338 1.932.355 1.818 2.4 3.083 3.188 3.51.788-.426 2.833-1.691 3.188-3.51.15-.769.024-1.492-.337-1.932-.253-.308-.618-.465-1.088-.467h-.005c-.736 0-1.021.73-1.05.814a.756.756 0 0 1-.708.5h-.008a.747.747 0 0 1-.704-.508c-.025-.077-.309-.807-1.047-.807Zm5.685 2.543h.01-.01Z"/></svg>
